img/logo.svg

<svg width="138" height="70" fill="none" xmlns="http://www.w3.org/2000/svg"><g clip-path="url(#a)"><path d="M138 0H0l59.5 65.7c5.2 5.8 13.8 5.8 19 0L138 0Z" fill="#81B3D3"/><path d="m36.7.5 32.1 37.9 32-37.7L36.7.5Z" fill="#23A9E1"/><path d="M61.1 14.7h17.3c-1.3-.8-4.4-4.6-6-3.2-.1.1-4.9-5.7-8-2.9-2.7 2.5-4-.3-7 1.6-3.6 2.4 2 3.7 3.7 4.5Zm26.7-3.5-9.8.1c3.9-4.5 5.6-4 9.8-.1Z" fill="#fff"/><path d="M97.6 3.6V1.2h2.1l-2.1 2.4ZM48.4 13c.1.1 2.4-2.4 6.1-4.9 3.4-2.3 8.6-4.9 14.4-4.9 5.8 0 11.1 2.7 14.5 5 3.7 2.4 6 4.8 6.1 4.9l-2.5 3c-4.5.6-7.7 3.9-12.1 3.2-2.2-.4-2.3-1.6-2.9-2.9-.5-1-1.3-.8-2.3-1.2-.9-.4-1.5-1.1-3.4-.7-1.6.4-1.8 2.9-3.9 2.8-1.1-.1-1.2-1.6-2.8-3.6-4.1-4.9-7.9-4.2-10.5.3l19.6 23.3L48.4 13ZM40 1.2v1.9l-1.6-1.9H40Zm53.9 0h3.2v3L93.9 8V1.2Zm-4.1 11.4V1.2h3.5v7.4l-3.5 4s.1 0 0 0Zm-.5-10.4v9.9c-1.1-1.1-2.3-2.1-3.6-3l3.6-6.9Zm-4.1-.3v6.8c-.5-.3-.9-.7-1.5-1-.7-.4-1.4-.9-2.2-1.3l3.7-4.5Zm-4.4-.2V6c-1-.5-2.1-1-3.1-1.5l3.1-2.8Zm.6-.5h3.7l-3.7 4.6V1.2Zm4.3 0h3.6l-3.6 7.1V1.2Zm-8.8 0h3.9l-3.5 3.1c-.1 0-.2-.1-.3-.1l-.1-3Zm-.5.4V4c-1-.4-2-.7-3.1-.9l3.1-1.5Zm-4.2 0v1.3L70 2.6l2.2-1Zm-6.8 0 2.2 1c-.8 0-1.5.1-2.2.3V1.6Zm-4.1 0 3.1 1.5c-1.1.2-2.1.5-3.1.9V1.6Zm3.6 1.2-3.3-1.6h3.3v1.6Zm3.5-.4-2.8-1.3h2.8v1.3Zm.7-1.2H72l-2.9 1.3V1.2Zm3.7 0H76l-3.2 1.6V1.2ZM60.4 4.3l-3.5-3.1h3.9v3l-.4.1Zm-3.6-2.6 3.1 2.7c-1.1.4-2.1.9-3.1 1.5V1.7Zm-4.3.2 3.6 4.5c-1.3.7-2.5 1.5-3.6 2.4V1.9Zm-4.2.3 3.6 7c-1.3 1-2.5 2-3.6 3.2V2.2Zm3.7 6-3.6-7.1H52v7.1Zm4.3-2.5-3.7-4.6h3.7v4.6ZM43.7 7.5l-3.2-3.8V1.2h3.2v6.3Zm.6-6.3h3.5v11.2l-3.5-4.2v-7ZM69.1 0H36v14.6l32.8 39.9.2-.3L102 15V0H69.1Z" fill="#491213"/><path d="m66.2 46 2.6-4.2 2.6 4.2-2.6 4.2-2.6-4.2Z" fill="#23A9E1"/><path d="M74.2 30.6c-3.4-2-2.6-3.5.2-4.9 1.5-.7 4.8-3.4 6.1-2.5l-6.3 7.4Zm-2.3 2.5c-2-.1-4.3-.4-6.3.1 1.2.3 4.2 1.2 1.4 1.9 1 1.4 2.6 1.3 3.6.1-.4-.2-.7-.5-1-.7 1.1-.3 2.1-.9 2.3-1.4Zm1.2-1.6c-.9-.8-1.9-.8-2.7 0-1.2-2.1-5.4-1.4-7.4-1.7 1.1 2.6 9.6 3.1 10.1 1.7Zm-6.8-2.2c-1.6-.5-6.8-.4-3.4-1.8 1.1-.4 6.7.1 3.4 1.8Zm2-3c-.5-1.1.4-2.4 1.7-1.4 1.2.8-.6 2-1.7 1.4Zm-2.9.1c-2.3.7-5.3-.8-1.6-1.5 2.3-.5 4.7.5 1.6 1.5-.1 0 .1 0 0 0Zm-2.6-6.2c-.5 1.6-1.5 1.9-1.4 0 .1-2.3 1.6-1.7 3.2-2.6 1.3-.7 2-3.4 4.3-1.8 1 .7 2.2.1 2.5 1.2 0-.1-2.9 6.7-1.3 6.7-3.2 0-1.8-3.8-.6-6.4-1.2.6-3.1 4.3-1.5 5-.8 1.1-3.4 2.6-4.7 1.5-1.1-1-.5-2.3-.5-3.6Zm-4 2.8c-5.6 0-1.8-8.6.1-8.1 2.2.7 1.9 8.2-.1 8.1Zm-6.2-8.2c-2.6-.1-1.5-2.6.3-3.1 1.7-.5 5.2 1.1 6.4 2.2-1.8.6-4.1.5-6.1.6-.2-2-.7-1.3-.6.3Z" fill="#DC6243"/><path d="M71.8 25.8c-2.9-3 4.3-2.7 5.5-3.8.8.3 7-5.4 8.5-5-1.1 1.3-3.4 5.3-5 5.3-1.3 0-2.6-.2-3.6.7-1.5 1.4-3.9 2.1-5.4 2.8Z" fill="#F49774"/><path d="M72.7 22.2c-1.6.9-3.1-2.5-.3-2.2 1.8.2 3.7-.2 5.4.1a5.86 5.86 0 0 1-5.1 2.1Z" fill="#F4B1A4"/><path d="M51.1 20.9c.3.4.6.8.5 1.4 0 .4-.6 1-.2 1.2l1.5-1.8c-.4-.1-3.5-3.8-3.5-4.2l-2.1 1.1c.1.4.8 0 1.2 0 .5 0 .9.4 1.3.7-1.1.9-3.8 3.3-4.1 3.3-.1 0-.7-.4-.7 0 0 .2.6.7.7.8l1.4 1.7c.4-.2-.1-.5.1-.8.1-.2 3.2-2.7 3.9-3.4Zm-3.4-4.5c.3-.1.4.3.6 0l-1.6-1.9c-.2-.3-.5-.6-.5 0 .1.4-4 3.7-4.2 3.8-.3.1-.5-.3-.7.1l1.4 1.7c.2.2.3.4.5.6.2.2.1-.4.1-.4-.1-.3.3-.6.6-.8 1-1 3.5-3.1 3.8-3.1Zm-5.7-.6c-1.1.3-2.4-.1-2.7-1.3-.4-1.2.4-2.4 1.3-3.1.9-.7 2.3-.6 2.8.5.2.5.1 1.1-.1 1.6-.1.3-.4.6 0 .8.6-.7 1.1-1.4 1.7-2.1-.7-.4-1-1.1-1.5-1.7-.6-.7-1.3-1.4-2.3-1.5-1.9-.3-3.6 1.7-3.8 3.4-.1.9.2 1.8.8 2.6.5.6 1.2 1.1 1.6 1.8.2.1 1.8-.7 2.1-.8.2 0 .1-.1.1-.2-.5.2 0 0 0 0Zm25.5 23.6c-.7-.5-2.6-3-3-3.5l-.2-.3-.2.1c-.1.1.1.4 0 .6-.5.8-3.7 3.2-3.9 3.4-.4.2-.8-.1-1 .2.5.6 1.8 2.3 2 2.3.3 0 .1-.5.1-.6.1-.2 1.7-1.6 2.3-2.1.2-.2.4.3.6.5.2.3.3.7.2 1-.1.2-.5.6-.2.8.4-.5 1.5-1.8 1.7-2 .2-.2-.4 0-.3-.1-.2.1-.5.2-.7 0-.1 0-.7-.7-.6-.8.3-.2.6-.6 1-.7.6-.1 1 1 1.1 1.4.1.4.1.8-.1 1.1-.1.3-.3.5 0 .6l1.4-1.9c0 .1-.1.1-.2 0-.1 0 .1.1 0 0Zm-9.2-8.9c-.7 0-1.4.3-2 .8a3.56 3.56 0 0 0-.5 4.8c1.3 1.7 3.4 1.9 5.1.7 1.4-1.2 1.6-3.3.5-4.8-.8-1-2-1.5-3.1-1.5Zm1.2 1.4c.9-.1 1.5.8 1.1 1.8-.4 1-1.4 2-2.4 2.4-1.2.5-2-.5-1.5-1.7.4-1 1.4-2 2.4-2.4.1 0 .2-.1.4-.1Zm-2.8-4.6c.3 0 .6.4.8 0l-1.4-1.7c-.4.2 0 .4-.1.6-.2.3-1.7.5-2.1.6.1-.4.6-1.7.8-1.8.4-.3.6.3.8-.1l-1.8-2.1c-.2-.2-.4-.7-.6-.4 0 0 0 1-.1 1.1-.1.2-.6 2.4-1.2 2.9a11 11 0 0 1-1.8 1.4c-.3.1-.5-.4-.8 0l1.6 1.9c.1.1.4.6.5.6.3.1 0-.6.1-.7.1-.3 1.6-1.8 2.3-1.9.9-.2 2-.5 3-.4.2 0-.2 0 0 0ZM80.9 34c.1.4.2.9.1 1.3-.1.6-.6 1.9-1.4 1.5-.8-.4-1.4-1.1-2.1-1.7.5-.6 1-1.1 1.9-.8.2.1.4 0 .2-.2-.3-.2-2-1.3-2.1-1.2-.2.2.3.6.1 1-.1.3-.4.5-.6.8-.5-.4-1.2-.8-.7-1.5.4-.4.8-.8 1.4-.9.4-.1 1.2.3 1.3-.1-.7-.3-1.4-.7-2.1-1 .1.5-2.2 2.9-2.7 3.5-.1.1-.4.4-.4.5 0 .3.4.1.4.1.3-.1 4.4 3.3 4.5 3.6.1.2-.1.4 0 .5 0 0 .1.1.2.1.3-.3 2.9-3.9 3.5-4l-1.5-2.4c-.4.2-.1.7 0 .9Zm-4 4.4c-1.3-.9-3.6.8-4 1-.7.3-1.2-.4-.8-1 .3-.5.9-.8 1.5-.8.2 0 .9.1.9 0 .1-.1.1-.1 0-.2-.6-.4-1.1-.8-1.7-1.1-.1.7-.9 1.1-1.3 1.6-.5.6-1 1.3-1 2s.4 1.4 1.1 1.7c.7.4 1.5.1 2.2-.3.4-.3.8-.6 1.2-.8.6-.3 1.5 0 1.3.8-.2.7-.9 1.3-1.6 1.5-.4.1-.8.1-1.2-.1-.3-.1-.6-.5-.8-.1l2.3 1.6c.1-.5.3-.7.7-1 .5-.4.9-.9 1.3-1.4.8-.9 1.1-2.5-.1-3.4Zm17.6-28.1c0 .1 0 .1 0 0l-.9 1-.8 1c-.2.2-.3.3 0 .5.5-.3 3.5 4.8 3.3 5.5-.5.2-4.5-3.3-4.6-3.5 0-.1.2-.7-.1-.6-.1 0-.5.6-.6.7l-.6.7c.2.3.3 0 .6 0 .2.1 1.2.9 1.5 1.1-.5 0-1.7.1-1.9.1-.6.1-.3-.4-.7-.6L88.2 18l-.9 1v.1c.2.2.1.1.4 0 .3-.1 4.3 3.2 4.4 3.4.2.3-.1.6.3.8l1.2-1.4c.1-.1.1-.1 0-.1-.3-.2-.3.1-.7.1-.3-.1-2.9-2.2-3.8-3l5.3-.2c.2 0 .7.6.7.8-.1.2-.3.4 0 .5.3-.4.6-.7.9-1.1l.1-.2c.1 0 .1-.1.1-.2l.1-.1c.3-.3 1.2-1.3 1.1-1.4-.3-.3-.4.3-.8 0-.2-.2-.8-1.2-.9-1.4-.2-.3.4-.6.6-.7.5-.3 2.1-.8 2.3.2 0 .2-.2.4-.1.5 0 0 .1.2.2.1l2.1-2.6-.2-.2c-.5.5-5.5-1.5-5.8-1.8-.1-.2-.1-.8-.3-.8Zm-.2 2.6c.8.3 1.5.6 2.3 1l-.6.3c-.2.1-.4.3-.6.5l-1.1-1.8Zm-6.6 7.7c-1.1-.1-2.2.4-3 1.3-1.2 1.5-1.1 3.7.4 4.9 1.5 1.2 3.7.9 4.9-.5 1.2-1.5 1.1-3.7-.4-4.9-.5-.4-1.2-.7-1.9-.8Zm-1.4 1.6c.6 0 1.3.4 1.7.7.8.5 2.2 1.7 1.5 2.7 0-.1.1-.1-.1.1-.8.8-2.2.1-2.9-.5-.7-.5-2-1.7-1.2-2.7.3-.2.6-.3 1-.3Zm-3.1 4.3c-1.2-.1-2.4.5-3.3 1.6-.6.8-1.3 1.5-1.9 2.3.2.3.5-.1.8.1.3.2 4.1 3.3 4.1 3.5.1.3-.2.4.1.6.1.1 2.9-3.4 3.2-4 .4-1.1.1-2.4-.8-3.2.1.1.2.1 0 0-.8-.6-1.5-.9-2.2-.9Zm-1.1 1.6h.3c1.4.4 3.4 2.1 2.1 3.6l-.4.4c-.2.2-4.2-3-4-3.2.4-.5 1.3-.9 2-.8Z" fill="#fff"/></g><defs><clipPath id="a"><path fill="#fff" d="M0 0h138v70H0z"/></clipPath></defs></svg>

<svg width="138" height="70" viewBox="0 0 138 70" fill="none" xmlns="http://www.w3.org/2000/svg">
<g clip-path="url(#clip0)">
<path d="M138 0H0L59.5 65.7C64.7 71.5 73.3 71.5 78.5 65.7L138 0Z" fill="#81B3D3"/>
<path d="M36.7 0.5L68.8 38.4L100.8 0.7L36.7 0.5Z" fill="#23A9E1"/>
<path d="M61.1 14.7H78.4C77.1 13.9 74 10.1 72.4 11.5C72.3 11.6 67.5 5.8 64.4 8.6C61.7 11.1 60.4 8.3 57.4 10.2C53.8 12.6 59.4 13.9 61.1 14.7ZM87.8 11.2L78 11.3C81.9 6.8 83.6 7.3 87.8 11.2Z" fill="white"/>
<path d="M97.6 3.6V1.2H99.7L97.6 3.6ZM48.4 13C48.5 13.1 50.8 10.6 54.5 8.1C57.9 5.8 63.1 3.2 68.9 3.2C74.7 3.2 80 5.9 83.4 8.2C87.1 10.6 89.4 13 89.5 13.1L87 16.1C82.5 16.7 79.3 20 74.9 19.3C72.7 18.9 72.6 17.7 72 16.4C71.5 15.4 70.7 15.6 69.7 15.2C68.8 14.8 68.2 14.1 66.3 14.5C64.7 14.9 64.5 17.4 62.4 17.3C61.3 17.2 61.2 15.7 59.6 13.7C55.5 8.8 51.7 9.5 49.1 14L68.7 37.3L48.4 13ZM40 1.2V3.1L38.4 1.2H40ZM93.9 1.2H97.1V4.2L93.9 8V1.2ZM89.8 12.6V1.2H93.3V8.6L89.8 12.6C89.8 12.6 89.9 12.6 89.8 12.6ZM89.3 2.2V12.1C88.2 11 87 10 85.7 9.1L89.3 2.2ZM85.2 1.9V8.7C84.7 8.4 84.3 8 83.7 7.7C83 7.3 82.3 6.8 81.5 6.4L85.2 1.9ZM80.8 1.7V6C79.8 5.5 78.7 5 77.7 4.5L80.8 1.7ZM81.4 1.2H85.1L81.4 5.8V1.2ZM85.7 1.2H89.3L85.7 8.3V1.2ZM76.9 1.2H80.8L77.3 4.3C77.2 4.3 77.1 4.2 77 4.2L76.9 1.2ZM76.4 1.6V4C75.4 3.6 74.4 3.3 73.3 3.1L76.4 1.6ZM72.2 1.6V2.9C71.5 2.8 70.8 2.7 70 2.6L72.2 1.6ZM65.4 1.6L67.6 2.6C66.8 2.6 66.1 2.7 65.4 2.9V1.6ZM61.3 1.6L64.4 3.1C63.3 3.3 62.3 3.6 61.3 4V1.6ZM64.9 2.8L61.6 1.2H64.9V2.8ZM68.4 2.4L65.6 1.1H68.4V2.4ZM69.1 1.2H72L69.1 2.5V1.2ZM72.8 1.2H76L72.8 2.8V1.2ZM60.4 4.3L56.9 1.2H60.8V4.2L60.4 4.3ZM56.8 1.7L59.9 4.4C58.8 4.8 57.8 5.3 56.8 5.9V1.7ZM52.5 1.9L56.1 6.4C54.8 7.1 53.6 7.9 52.5 8.8V1.9ZM48.3 2.2L51.9 9.2C50.6 10.2 49.4 11.2 48.3 12.4V2.2ZM52 8.2L48.4 1.1H52V8.2ZM56.3 5.7L52.6 1.1H56.3V5.7ZM43.7 7.5L40.5 3.7V1.2H43.7V7.5ZM44.3 1.2H47.8V12.4L44.3 8.2V1.2ZM69.1 0H36V14.6L68.8 54.5L69 54.2L102 15V0H69.1Z" fill="#491213"/>
<path d="M66.2 46L68.8 41.8L71.4 46L68.8 50.2L66.2 46Z" fill="#23A9E1"/>
<path d="M74.2 30.6C70.8 28.6 71.6 27.1 74.4 25.7C75.9 25 79.2 22.3 80.5 23.2L74.2 30.6ZM71.9 33.1C69.9 33 67.6 32.7 65.6 33.2C66.8 33.5 69.8 34.4 67 35.1C68 36.5 69.6 36.4 70.6 35.2C70.2 35 69.9 34.7 69.6 34.5C70.7 34.2 71.7 33.6 71.9 33.1ZM73.1 31.5C72.2 30.7 71.2 30.7 70.4 31.5C69.2 29.4 65 30.1 63 29.8C64.1 32.4 72.6 32.9 73.1 31.5ZM66.3 29.3C64.7 28.8 59.5 28.9 62.9 27.5C64 27.1 69.6 27.6 66.3 29.3ZM68.3 26.3C67.8 25.2 68.7 23.9 70 24.9C71.2 25.7 69.4 26.9 68.3 26.3ZM65.4 26.4C63.1 27.1 60.1 25.6 63.8 24.9C66.1 24.4 68.5 25.4 65.4 26.4C65.3 26.4 65.5 26.4 65.4 26.4ZM62.8 20.2C62.3 21.8 61.3 22.1 61.4 20.2C61.5 17.9 63 18.5 64.6 17.6C65.9 16.9 66.6 14.2 68.9 15.8C69.9 16.5 71.1 15.9 71.4 17C71.4 16.9 68.5 23.7 70.1 23.7C66.9 23.7 68.3 19.9 69.5 17.3C68.3 17.9 66.4 21.6 68 22.3C67.2 23.4 64.6 24.9 63.3 23.8C62.2 22.8 62.8 21.5 62.8 20.2ZM58.8 23C53.2 23 57 14.4 58.9 14.9C61.1 15.6 60.8 23.1 58.8 23ZM52.6 14.8C50 14.7 51.1 12.2 52.9 11.7C54.6 11.2 58.1 12.8 59.3 13.9C57.5 14.5 55.2 14.4 53.2 14.5C53 12.5 52.5 13.2 52.6 14.8Z" fill="#DC6243"/>
<path d="M71.8 25.8C68.9 22.8 76.1 23.1 77.3 22C78.1 22.3 84.3 16.6 85.8 17C84.7 18.3 82.4 22.3 80.8 22.3C79.5 22.3 78.2 22.1 77.2 23C75.7 24.4 73.3 25.1 71.8 25.8Z" fill="#F49774"/>
<path d="M72.7 22.2C71.1 23.1 69.6 19.7 72.4 20C74.2 20.2 76.1 19.8 77.8 20.1C76.5 21.6 74.7 22.4 72.7 22.2Z" fill="#F4B1A4"/>
<path d="M51.1 20.9C51.4 21.3 51.7 21.7 51.6 22.3C51.6 22.7 51 23.3 51.4 23.5L52.9 21.7C52.5 21.6 49.4 17.9 49.4 17.5L47.3 18.6C47.4 19 48.1 18.6 48.5 18.6C49 18.6 49.4 19 49.8 19.3C48.7 20.2 46 22.6 45.7 22.6C45.6 22.6 45 22.2 45 22.6C45 22.8 45.6 23.3 45.7 23.4L47.1 25.1C47.5 24.9 47 24.6 47.2 24.3C47.3 24.1 50.4 21.6 51.1 20.9ZM47.7 16.4C48 16.3 48.1 16.7 48.3 16.4L46.7 14.5C46.5 14.2 46.2 13.9 46.2 14.5C46.3 14.9 42.2 18.2 42 18.3C41.7 18.4 41.5 18 41.3 18.4C41.8 19 42.2 19.5 42.7 20.1C42.9 20.3 43 20.5 43.2 20.7C43.4 20.9 43.3 20.3 43.3 20.3C43.2 20 43.6 19.7 43.9 19.5C44.9 18.5 47.4 16.4 47.7 16.4ZM42 15.8C40.9 16.1 39.6 15.7 39.3 14.5C38.9 13.3 39.7 12.1 40.6 11.4C41.5 10.7 42.9 10.8 43.4 11.9C43.6 12.4 43.5 13 43.3 13.5C43.2 13.8 42.9 14.1 43.3 14.3C43.9 13.6 44.4 12.9 45 12.2C44.3 11.8 44 11.1 43.5 10.5C42.9 9.8 42.2 9.1 41.2 9C39.3 8.7 37.6 10.7 37.4 12.4C37.3 13.3 37.6 14.2 38.2 15C38.7 15.6 39.4 16.1 39.8 16.8C40 16.9 41.6 16.1 41.9 16C42.1 16 42 15.9 42 15.8C41.5 16 42 15.8 42 15.8ZM67.5 39.4C66.8 38.9 64.9 36.4 64.5 35.9L64.3 35.6L64.1 35.7C64 35.8 64.2 36.1 64.1 36.3C63.6 37.1 60.4 39.5 60.2 39.7C59.8 39.9 59.4 39.6 59.2 39.9C59.7 40.5 61 42.2 61.2 42.2C61.5 42.2 61.3 41.7 61.3 41.6C61.4 41.4 63 40 63.6 39.5C63.8 39.3 64 39.8 64.2 40C64.4 40.3 64.5 40.7 64.4 41C64.3 41.2 63.9 41.6 64.2 41.8C64.6 41.3 65.7 40 65.9 39.8C66.1 39.6 65.5 39.8 65.6 39.7C65.4 39.8 65.1 39.9 64.9 39.7C64.8 39.7 64.2 39 64.3 38.9C64.6 38.7 64.9 38.3 65.3 38.2C65.9 38.1 66.3 39.2 66.4 39.6C66.5 40 66.5 40.4 66.3 40.7C66.2 41 66 41.2 66.3 41.3L67.7 39.4C67.7 39.5 67.6 39.5 67.5 39.4C67.4 39.4 67.6 39.5 67.5 39.4ZM58.3 30.5C57.6 30.5 56.9 30.8 56.3 31.3C54.9 32.5 54.7 34.6 55.8 36.1C57.1 37.8 59.2 38 60.9 36.8C62.3 35.6 62.5 33.5 61.4 32C60.6 31 59.4 30.5 58.3 30.5ZM59.5 31.9C60.4 31.8 61 32.7 60.6 33.7C60.2 34.7 59.2 35.7 58.2 36.1C57 36.6 56.2 35.6 56.7 34.4C57.1 33.4 58.1 32.4 59.1 32C59.2 32 59.3 31.9 59.5 31.9ZM56.7 27.3C57 27.3 57.3 27.7 57.5 27.3L56.1 25.6C55.7 25.8 56.1 26 56 26.2C55.8 26.5 54.3 26.7 53.9 26.8C54 26.4 54.5 25.1 54.7 25C55.1 24.7 55.3 25.3 55.5 24.9L53.7 22.8C53.5 22.6 53.3 22.1 53.1 22.4C53.1 22.4 53.1 23.4 53 23.5C52.9 23.7 52.4 25.9 51.8 26.4C51.5 26.7 50.3 27.7 50 27.8C49.7 27.9 49.5 27.4 49.2 27.8L50.8 29.7C50.9 29.8 51.2 30.3 51.3 30.3C51.6 30.4 51.3 29.7 51.4 29.6C51.5 29.3 53 27.8 53.7 27.7C54.6 27.5 55.7 27.2 56.7 27.3C56.9 27.3 56.5 27.3 56.7 27.3ZM80.9 34C81 34.4 81.1 34.9 81 35.3C80.9 35.9 80.4 37.2 79.6 36.8C78.8 36.4 78.2 35.7 77.5 35.1C78 34.5 78.5 34 79.4 34.3C79.6 34.4 79.8 34.3 79.6 34.1C79.3 33.9 77.6 32.8 77.5 32.9C77.3 33.1 77.8 33.5 77.6 33.9C77.5 34.2 77.2 34.4 77 34.7C76.5 34.3 75.8 33.9 76.3 33.2C76.7 32.8 77.1 32.4 77.7 32.3C78.1 32.2 78.9 32.6 79 32.2C78.3 31.9 77.6 31.5 76.9 31.2C77 31.7 74.7 34.1 74.2 34.7C74.1 34.8 73.8 35.1 73.8 35.2C73.8 35.5 74.2 35.3 74.2 35.3C74.5 35.2 78.6 38.6 78.7 38.9C78.8 39.1 78.6 39.3 78.7 39.4C78.7 39.4 78.8 39.5 78.9 39.5C79.2 39.2 81.8 35.6 82.4 35.5C81.9 34.7 81.4 33.9 80.9 33.1C80.5 33.3 80.8 33.8 80.9 34ZM76.9 38.4C75.6 37.5 73.3 39.2 72.9 39.4C72.2 39.7 71.7 39 72.1 38.4C72.4 37.9 73 37.6 73.6 37.6C73.8 37.6 74.5 37.7 74.5 37.6C74.6 37.5 74.6 37.5 74.5 37.4C73.9 37 73.4 36.6 72.8 36.3C72.7 37 71.9 37.4 71.5 37.9C71 38.5 70.5 39.2 70.5 39.9C70.5 40.6 70.9 41.3 71.6 41.6C72.3 42 73.1 41.7 73.8 41.3C74.2 41 74.6 40.7 75 40.5C75.6 40.2 76.5 40.5 76.3 41.3C76.1 42 75.4 42.6 74.7 42.8C74.3 42.9 73.9 42.9 73.5 42.7C73.2 42.6 72.9 42.2 72.7 42.6L75 44.2C75.1 43.7 75.3 43.5 75.7 43.2C76.2 42.8 76.6 42.3 77 41.8C77.8 40.9 78.1 39.3 76.9 38.4ZM94.5 10.3C94.5 10.4 94.5 10.4 94.5 10.3L93.6 11.3L92.8 12.3C92.6 12.5 92.5 12.6 92.8 12.8C93.3 12.5 96.3 17.6 96.1 18.3C95.6 18.5 91.6 15 91.5 14.8C91.5 14.7 91.7 14.1 91.4 14.2C91.3 14.2 90.9 14.8 90.8 14.9L90.2 15.6C90.4 15.9 90.5 15.6 90.8 15.6C91 15.7 92 16.5 92.3 16.7C91.8 16.7 90.6 16.8 90.4 16.8C89.8 16.9 90.1 16.4 89.7 16.2L88.2 18L87.3 19C87.3 19 87.3 19 87.3 19.1C87.5 19.3 87.4 19.2 87.7 19.1C88 19 92 22.3 92.1 22.5C92.3 22.8 92 23.1 92.4 23.3L93.6 21.9C93.7 21.8 93.7 21.8 93.6 21.8C93.3 21.6 93.3 21.9 92.9 21.9C92.6 21.8 90 19.7 89.1 18.9L94.4 18.7C94.6 18.7 95.1 19.3 95.1 19.5C95 19.7 94.8 19.9 95.1 20C95.4 19.6 95.7 19.3 96 18.9L96.1 18.7C96.2 18.7 96.2 18.6 96.2 18.5L96.3 18.4C96.6 18.1 97.5 17.1 97.4 17C97.1 16.7 97 17.3 96.6 17C96.4 16.8 95.8 15.8 95.7 15.6C95.5 15.3 96.1 15 96.3 14.9C96.8 14.6 98.4 14.1 98.6 15.1C98.6 15.3 98.4 15.5 98.5 15.6C98.5 15.6 98.6 15.8 98.7 15.7L100.8 13.1C100.7 13 100.7 13 100.6 12.9C100.1 13.4 95.1 11.4 94.8 11.1C94.7 10.9 94.7 10.3 94.5 10.3ZM94.3 12.9C95.1 13.2 95.8 13.5 96.6 13.9C96.4 14 96.2 14.1 96 14.2C95.8 14.3 95.6 14.5 95.4 14.7L94.3 12.9ZM87.7 20.6C86.6 20.5 85.5 21 84.7 21.9C83.5 23.4 83.6 25.6 85.1 26.8C86.6 28 88.8 27.7 90 26.3C91.2 24.8 91.1 22.6 89.6 21.4C89.1 21 88.4 20.7 87.7 20.6ZM86.3 22.2C86.9 22.2 87.6 22.6 88 22.9C88.8 23.4 90.2 24.6 89.5 25.6C89.5 25.5 89.6 25.5 89.4 25.7C88.6 26.5 87.2 25.8 86.5 25.2C85.8 24.7 84.5 23.5 85.3 22.5C85.6 22.3 85.9 22.2 86.3 22.2ZM83.2 26.5C82 26.4 80.8 27 79.9 28.1C79.3 28.9 78.6 29.6 78 30.4C78.2 30.7 78.5 30.3 78.8 30.5C79.1 30.7 82.9 33.8 82.9 34C83 34.3 82.7 34.4 83 34.6C83.1 34.7 85.9 31.2 86.2 30.6C86.6 29.5 86.3 28.2 85.4 27.4C85.5 27.5 85.6 27.5 85.4 27.4C84.6 26.8 83.9 26.5 83.2 26.5ZM82.1 28.1C82.2 28.1 82.3 28.1 82.4 28.1C83.8 28.5 85.8 30.2 84.5 31.7C84.3 31.9 84.5 31.7 84.1 32.1C83.9 32.3 79.9 29.1 80.1 28.9C80.5 28.4 81.4 28 82.1 28.1Z" fill="white"/>
</g>
<defs>
<clipPath id="clip0">
<rect width="138" height="70" fill="white"/>
</clipPath>
</defs>
</svg>
